X: 441
T: On Lough Neagh's Banks
N:"collected by F.O'Neill"
N:Irish title: air bruaca lo.ca-nea.g
B:O'Neill's 441
Z:Transcribed by henrik.norbeck@mailbox.swipnet.se
M:C
L:1/8
K:C
(e>f) | (g3 a) (ge)(dc) | d>cde A3 c | (G>AG).E G2 (cB) | (Adfe) d2 (c/d/e/f/) |
(g3 a) (ge)(dc) | (fe)(dc) {B}A2 (e>d) | (cA)(GE) G2 (c>d) | e2 {B}(d>c) c2 ||
(GF) | E3 G (A>GA).c | (d>cd).e A3 a | (g>ag).e fedc | (f>g a/g/f/e/) {e}d2 gf |
(egab) (c'2 ba) | gedc {B}A2 ed | (cA)(GE) G2 c>d | e2 {B}(d>c) c2 ||


